build/assets/images/proyectos/logos/fichas/logo-educo.svg

<svg width="160" height="90" viewBox="0 0 160 90" fill="none" xmlns="http://www.w3.org/2000/svg">
<g clip-path="url(#clip0)">
<path d="M114.348 49.676C110.249 49.676 106.149 49.7158 102.05 49.676C101.094 49.676 100.259 49.875 99.4626 50.4323C96.0397 52.8203 92.6168 55.1686 89.1939 57.5168C88.2387 58.1536 87.2437 58.8701 86.0894 58.3128C84.975 57.7556 85.174 56.5218 85.1342 55.487C84.9352 51.7855 85.2138 48.084 84.8954 44.4223C84.8158 43.3079 84.4576 42.4721 83.7412 41.6362C74.3481 30.492 76.4974 13.0193 88.3183 4.66111C91.6616 2.27305 95.4427 0.88002 99.6218 0.88002C108.537 0.840219 117.492 0.720816 126.408 0.88002C136.995 1.07902 146.746 10.4323 147.861 20.9795C148.657 28.4621 147.502 35.3477 142.647 41.278C138.348 46.5716 132.657 49.4372 125.811 49.6362C122.03 49.7556 118.209 49.676 114.348 49.676ZM127.88 19.0293C127.522 17.7158 126.686 16.88 125.492 16.3228C124.537 15.8452 123.861 16.0044 123.025 16.7606C116.935 22.2134 109.293 22.1337 103.005 16.6412C101.93 15.7258 100.179 16.0044 99.1044 17.4372C98.3083 18.5118 97.7113 19.5069 99.184 20.8203C104.477 25.477 104.477 32.9596 99.184 37.6561C97.5919 39.0492 98.3879 40.1238 99.2636 41.1586C100.458 42.5915 102.01 42.7507 103.124 41.7158C109.015 36.3427 117.134 36.3427 122.985 41.7158C124.099 42.7507 125.572 42.5517 126.846 41.1984C127.96 40.0442 127.96 39.1288 126.647 37.9347C120.796 32.6412 120.955 25.3974 126.965 20.3427C127.363 19.9049 127.92 19.6661 127.88 19.0293ZM113.194 17.3974C116.816 17.3576 119.721 14.691 119.761 11.3875C119.761 8.00441 116.776 5.33773 112.995 5.37753C109.453 5.41733 106.348 8.24321 106.388 11.3875C106.388 14.691 109.492 17.4372 113.194 17.3974Z" fill="white"/>
<path d="M18.4278 77.0193C15.1243 77.0193 11.8208 77.0989 8.51735 76.9795C6.7263 76.9397 6.8855 77.5367 7.60192 78.7307C10.3084 83.1884 16.4775 84.7805 20.9751 82.1138C21.4925 81.7954 21.9303 81.4372 22.4477 81.1188C23.9601 80.2033 25.8308 80.482 26.7064 81.7556C27.6218 83.069 27.2636 84.7805 25.8706 85.9745C21.0945 89.9944 12.9353 90.3526 7.48252 86.8501C1.15416 82.7506 -1.3135 75.5466 1.27356 68.7407C3.74122 62.2133 10.9054 58.074 17.99 59.1088C25.7114 60.2232 30.5671 64.9596 31.7611 72.482C32.2387 75.5864 31.0845 76.9795 27.98 76.9795C24.7562 77.0193 21.6119 77.0193 18.4278 77.0193ZM25.1542 71.1685C23.7611 67.3874 20.4178 64.88 16.5571 64.7606C12.577 64.6412 9.39297 66.273 7.32332 69.8153C6.92531 70.4919 6.5671 71.1685 7.92033 71.1685C13.6119 71.1685 19.3034 71.1685 25.1542 71.1685Z" fill="white"/>
<path d="M59.6617 62.2134C59.6617 59.7059 59.6617 57.5566 59.6617 55.4074C59.6617 53.6163 60.7762 52.7805 62.408 52.5815C64 52.3825 65.5921 53.5765 65.6319 55.1288C65.6319 62.2532 66.3881 69.4571 65.3931 76.5019C63.7214 88.1238 49.3931 93.3776 40.1592 86.1338C34.9453 82.0343 32.8757 75.6661 34.8259 69.7358C36.7364 63.7656 42.3483 59.5467 48.7563 59.1487C52.5772 58.8701 56.1194 59.7855 59.6617 62.2134ZM49.9105 83.4671C55.2438 83.4671 59.6617 79.1686 59.6219 74.0343C59.5821 69.0989 55.0448 64.8402 49.8309 64.8004C44.5374 64.8004 40.1592 69.0989 40.199 74.2731C40.2388 79.4472 44.5374 83.5069 49.9105 83.4671Z" fill="white"/>
<path d="M143.761 59.0292C152.557 58.9894 159.522 65.5566 159.642 74.0342C159.761 82.273 152.716 89.3178 144.199 89.3576C135.164 89.3974 128.04 82.87 128 74.5118C127.96 65.6362 134.647 59.069 143.761 59.0292ZM143.721 83.3875C149.055 83.3875 153.393 79.288 153.393 74.1934C153.393 69.1387 149.015 64.8402 143.801 64.8004C138.667 64.7606 134.089 69.1387 134.05 74.074C134.05 79.1288 138.468 83.3875 143.721 83.3875Z" fill="white"/>
<path d="M97.6318 74.2332C97.6318 78.0541 97.6318 81.9148 97.6318 85.7357C97.6318 87.3277 97.2338 88.6809 95.5621 89.1585C94.0099 89.6362 92.6566 89.1585 91.9004 87.6461C91.3034 86.4521 90.7462 87.2879 90.189 87.5665C83.383 90.9894 75.4626 89.2381 71.0049 83.3078C69.0148 80.6809 68.2188 77.6561 68.179 74.3924C68.1392 70.5715 68.1392 66.7108 68.179 62.8899C68.179 60.3824 69.373 58.9496 71.3631 58.9894C73.2735 59.0292 74.3482 60.3824 74.3482 62.8501C74.3482 66.8302 74.3084 70.7705 74.3482 74.7506C74.388 79.6859 77.9303 83.3476 82.7462 83.3874C87.7213 83.467 91.4626 79.9247 91.582 74.9496C91.6616 70.8501 91.6218 66.7506 91.6218 62.6511C91.6218 60.3426 92.7362 58.9894 94.5671 58.9496C96.5571 58.9098 97.6716 60.2232 97.6716 62.6511C97.6716 66.5516 97.6318 70.3725 97.6318 74.2332Z" fill="white"/>
<path d="M116.259 59.0292C119.801 58.9496 123.025 59.9844 125.811 62.2132C127.522 63.5665 127.881 65.2381 126.846 66.671C125.771 68.1436 123.94 68.3426 122.109 67.0292C119.682 65.3177 117.095 64.4421 114.109 65.1187C110.289 65.9944 107.622 68.1834 106.706 71.9645C105.751 75.865 106.985 79.2083 110.289 81.5565C113.592 83.865 117.134 84.1038 120.756 82.1934C121.393 81.8749 121.95 81.3575 122.587 80.9993C124.1 80.1237 125.97 80.4819 126.846 81.7556C127.721 83.069 127.403 84.7804 126.01 85.9744C121.075 90.1536 112.915 90.5118 107.304 86.8501C101.532 83.069 98.9851 76.4222 100.816 69.9744C102.687 63.5665 108.776 59.069 115.662 59.0292C115.861 59.0292 116.06 59.0292 116.259 59.0292Z" fill="white"/>
</g>
<defs>
<clipPath id="clip0">
<rect width="160" height="89.1542" fill="white" transform="translate(0 0.680908)"/>
</clipPath>
</defs>
</svg>

<svg width="160" height="90" fill="none" xmlns="http://www.w3.org/2000/svg"><g clip-path="url(#clip0)" fill="#fff"><path d="M114.348 49.676c-4.099 0-8.199.04-12.298 0-.956 0-1.791.199-2.587.756a1583.608 1583.608 0 01-10.27 7.085c-.954.637-1.95 1.353-3.104.796-1.114-.557-.915-1.791-.955-2.826-.199-3.702.08-7.403-.239-11.065-.08-1.114-.437-1.95-1.154-2.786-9.393-11.144-7.244-28.617 4.577-36.975C91.662 2.273 95.443.88 99.622.88c8.915-.04 17.87-.16 26.786 0 10.587.199 20.338 9.552 21.453 20.1.796 7.482-.359 14.368-5.214 20.298-4.299 5.294-9.99 8.16-16.836 8.358-3.781.12-7.602.04-11.463.04zm13.532-30.647c-.358-1.313-1.194-2.149-2.388-2.706-.955-.478-1.631-.319-2.467.438-6.09 5.452-13.732 5.373-20.02-.12-1.075-.915-2.826-.637-3.9.796-.797 1.075-1.394 2.07.079 3.383 5.293 4.657 5.293 12.14 0 16.836-1.592 1.393-.796 2.468.08 3.503 1.194 1.433 2.746 1.592 3.86.557 5.891-5.373 14.01-5.373 19.861 0 1.114 1.035 2.587.836 3.861-.518 1.114-1.154 1.114-2.07-.199-3.263-5.851-5.294-5.692-12.538.318-17.592.398-.438.955-.677.915-1.314zm-14.686-1.632c3.622-.04 6.527-2.706 6.567-6.01 0-3.383-2.985-6.05-6.766-6.01-3.542.04-6.647 2.866-6.607 6.01 0 3.304 3.104 6.05 6.806 6.01zM18.428 77.02c-3.304 0-6.607.079-9.91-.04-1.792-.04-1.633.557-.916 1.75 2.706 4.458 8.875 6.05 13.373 3.384.517-.319.955-.677 1.473-.995 1.512-.916 3.383-.637 4.258.637.916 1.313.558 3.025-.835 4.219-4.776 4.02-12.936 4.378-18.388.875-6.329-4.1-8.796-11.303-6.21-18.11 2.468-6.527 9.632-10.666 16.717-9.631 7.721 1.114 12.577 5.85 13.771 13.373.478 3.104-.677 4.498-3.781 4.498-3.224.04-6.368.04-9.552.04zm6.726-5.852c-1.393-3.78-4.736-6.288-8.597-6.407-3.98-.12-7.164 1.512-9.234 5.054-.398.677-.756 1.353.597 1.353h17.234zm34.508-8.955v-6.806c0-1.79 1.114-2.626 2.746-2.825 1.592-.2 3.184.995 3.224 2.547 0 7.124.756 14.328-.239 21.373-1.672 11.622-16 16.876-25.234 9.632-5.214-4.1-7.283-10.468-5.333-16.398 1.91-5.97 7.522-10.19 13.93-10.587 3.821-.279 7.363.636 10.906 3.064zM49.91 83.467c5.334 0 9.752-4.298 9.712-9.433-.04-4.935-4.577-9.194-9.791-9.234-5.294 0-9.672 4.299-9.632 9.473.04 5.174 4.338 9.234 9.712 9.194zm93.851-24.437c8.796-.04 15.761 6.527 15.881 15.004.119 8.239-6.926 15.284-15.443 15.324-9.035.04-16.159-6.488-16.199-14.846-.04-8.876 6.647-15.443 15.761-15.483zm-.04 24.358c5.334 0 9.672-4.1 9.672-9.195 0-5.054-4.378-9.353-9.592-9.393-5.134-.04-9.712 4.339-9.751 9.274 0 5.055 4.418 9.314 9.671 9.314zm-46.089-9.155v11.503c0 1.592-.398 2.945-2.07 3.422-1.552.478-2.905 0-3.662-1.512-.597-1.194-1.154-.358-1.711-.08-6.806 3.423-14.726 1.672-19.184-4.258-1.99-2.627-2.786-5.652-2.826-8.916-.04-3.82-.04-7.681 0-11.502 0-2.508 1.194-3.94 3.184-3.9 1.91.04 2.985 1.392 2.985 3.86 0 3.98-.04 7.92 0 11.9.04 4.936 3.582 8.598 8.398 8.637 4.975.08 8.717-3.462 8.836-8.437.08-4.1.04-8.2.04-12.299 0-2.308 1.114-3.662 2.945-3.701 1.99-.04 3.105 1.273 3.105 3.701 0 3.9-.04 7.721-.04 11.582zm18.627-15.203c3.542-.08 6.766.954 9.552 3.183 1.711 1.353 2.07 3.025 1.035 4.458-1.075 1.473-2.906 1.672-4.737.358-2.427-1.711-5.014-2.587-8-1.91-3.82.875-6.487 3.064-7.403 6.846-.955 3.9.279 7.243 3.583 9.591 3.303 2.309 6.845 2.548 10.467.637.637-.318 1.194-.835 1.831-1.194 1.513-.875 3.383-.517 4.259.757.875 1.313.557 3.024-.836 4.218-4.935 4.18-13.095 4.538-18.706.876-5.772-3.781-8.319-10.428-6.488-16.876 1.871-6.408 7.96-10.905 14.846-10.945h.597z"/></g><defs><clipPath id="clip0"><path fill="#fff" transform="translate(0 .68)" d="M0 0h160v89.154H0z"/></clipPath></defs></svg>
